packages/katcn/src/icons/svg/verticalAlignBottom-solid.svg

<svg width="24" height="25" viewBox="0 0 24 25" fill="none" xmlns="http://www.w3.org/2000/svg">
<path d="M13 9.81201V19.612C13 21.112 14.2 22.212 15.6 22.212H18.1C19.6 22.212 20.7 21.012 20.7 19.612V9.81201C20.7 8.31201 19.5 7.21201 18.1 7.21201H15.6C14.2 7.21201 13 8.41201 13 9.81201Z" fill="black"/>
<path d="M10.7 19.712V4.91201C10.7 3.51201 9.5 2.31201 8.1 2.31201H5.6C4.2 2.31201 3 3.51201 3 4.91201V19.612C3 21.112 4.2 22.312 5.6 22.312H8.1C9.5 22.312 10.7 21.112 10.7 19.712Z" fill="black"/>
</svg>

<svg xmlns="http://www.w3.org/2000/svg" fill="none" viewBox="0 0 24 25"><path fill="#000" d="M13 9.812v9.8c0 1.5 1.2 2.6 2.6 2.6h2.5c1.5 0 2.6-1.2 2.6-2.6v-9.8c0-1.5-1.2-2.6-2.6-2.6h-2.5c-1.4 0-2.6 1.2-2.6 2.6m-2.3 9.9v-14.8c0-1.4-1.2-2.6-2.6-2.6H5.6c-1.4 0-2.6 1.2-2.6 2.6v14.7c0 1.5 1.2 2.7 2.6 2.7h2.5c1.4 0 2.6-1.2 2.6-2.6"/></svg>
